X:1     %Music
T:Barbara Allen
B:Kidson F, 1891, Traditional Tunes, Oxford, Taphouse and Son
Z:Frank Kidson
S:Mr A. Wardill, Goathland
F:http://www.folkinfo.org/songs
M:3/4     %Meter
L:1/8     %
K:G
D |G G B3 G |A B G3 D |G B d2 G2 | F A3-A
w:In Read-ing Town there I was born, In Scot-land was my dwel-ling_
 D |G B d d2 B |c/ c/ c D2 G  |F A D3 F | A G3-G
w: Oh! there I court-ed a pret-ty fair maid, Her name was Bar-bara Al-len;_
 B |c c d d2 B |c/ c/ c E3 G |F A D3 F | A G3-G  |]
w:Oh there I court-ed a pret-ty fair maid, Her name was Bar-bara Al-len *